X:642
T: JESU WUNDEN
N: E2015
O: Europa, Mitteleuropa, Deutschland, Schlesien, Glatz
R: geistlich, Gebet, Jesus - Lied
M: 4/4
L: 1/4
K: G
 | G2A2 | cBB2 |
d2cB | BAA2 |
A2BA | G2AB |
c2B2 | A2z2 |
A2Bc | BAA2 |
c2B2 | A2z2 |
G2A2 | B2dc |
B2A2 | G4

@@@ Tune index: 5326
